public/assets/images/visibility-off-primary.svg

<svg width="24" height="25" viewBox="0 0 24 25" fill="none" xmlns="http://www.w3.org/2000/svg">
<g id="visibility_off">
<path id="Vector" d="M12 6.175C15.79 6.175 19.17 8.305 20.82 11.675C20.23 12.895 19.4 13.945 18.41 14.795L19.82 16.205C21.21 14.975 22.31 13.435 23 11.675C21.27 7.285 17 4.175 12 4.175C10.73 4.175 9.51 4.375 8.36 4.745L10.01 6.395C10.66 6.265 11.32 6.175 12 6.175ZM10.93 7.315L13 9.385C13.57 9.635 14.03 10.095 14.28 10.665L16.35 12.735C16.43 12.395 16.49 12.035 16.49 11.665C16.5 9.185 14.48 7.175 12 7.175C11.63 7.175 11.28 7.225 10.93 7.315ZM2.01 4.045L4.69 6.725C3.06 8.005 1.77 9.705 1 11.675C2.73 16.065 7 19.175 12 19.175C13.52 19.175 14.98 18.885 16.32 18.355L19.74 21.775L21.15 20.365L3.42 2.625L2.01 4.045ZM9.51 11.545L12.12 14.155C12.08 14.165 12.04 14.175 12 14.175C10.62 14.175 9.5 13.055 9.5 11.675C9.5 11.625 9.51 11.595 9.51 11.545ZM6.11 8.145L7.86 9.895C7.63 10.445 7.5 11.045 7.5 11.675C7.5 14.155 9.52 16.175 12 16.175C12.63 16.175 13.23 16.045 13.77 15.815L14.75 16.795C13.87 17.035 12.95 17.175 12 17.175C8.21 17.175 4.83 15.045 3.18 11.675C3.88 10.245 4.9 9.065 6.11 8.145Z" fill="var(--ion-color-primary)"/>
</g>
</svg>

<svg width="24" height="25" fill="none" xmlns="http://www.w3.org/2000/svg"><path d="M12 6.175a9.77 9.77 0 018.82 5.5 9.647 9.647 0 01-2.41 3.12l1.41 1.41c1.39-1.23 2.49-2.77 3.18-4.53-1.73-4.39-6-7.5-11-7.5-1.27 0-2.49.2-3.64.57l1.65 1.65c.65-.13 1.31-.22 1.99-.22zm-1.07 1.14L13 9.385c.57.25 1.03.71 1.28 1.28l2.07 2.07c.08-.34.14-.7.14-1.07.01-2.48-2.01-4.49-4.49-4.49-.37 0-.72.05-1.07.14zm-8.92-3.27l2.68 2.68A11.738 11.738 0 001 11.675c1.73 4.39 6 7.5 11 7.5 1.52 0 2.98-.29 4.32-.82l3.42 3.42 1.41-1.41L3.42 2.625l-1.41 1.42zm7.5 7.5l2.61 2.61c-.04.01-.08.02-.12.02a2.5 2.5 0 01-2.5-2.5c0-.05.01-.08.01-.13zm-3.4-3.4l1.75 1.75a4.6 4.6 0 00-.36 1.78 4.507 4.507 0 006.27 4.14l.98.98c-.88.24-1.8.38-2.75.38a9.77 9.77 0 01-8.82-5.5c.7-1.43 1.72-2.61 2.93-3.53z" fill="var(--ion-color-primary)"/></svg>
